frontend/public/svg/interface/server.svg

<svg width="142" height="164" viewBox="0 0 142 164" fill="none" xmlns="http://www.w3.org/2000/svg">
<path d="M141.712 143.936L141.354 143.897L141.712 143.878C141.691 143.491 141.671 143.104 141.659 142.717C141.556 138.937 141.451 135.158 141.342 131.378C141.067 121.692 140.784 111.678 140.568 101.761C140.475 97.5263 140.496 93.2138 140.523 89.0446C140.534 87.1123 140.545 85.18 140.545 83.2477V81.9387L140.265 81.9344L140.49 73.3185C140.702 65.1515 140.912 56.9841 141.119 48.8161L141.21 45.1922C141.353 39.555 141.504 33.7262 141.568 27.9868C141.587 26.2618 141.509 24.5268 141.431 22.8046C141.364 21.3039 141.296 19.7521 141.299 18.2422C141.308 13.799 138.457 11.6118 136.311 10.3532C132.298 8.08523 127.954 6.44891 123.435 5.50256C108.191 1.96947 92.5906 0.888397 79.3404 0.297064C69.7869 -0.199057 60.211 -0.0736622 50.674 0.672544C40.7914 1.44638 31.0029 3.13373 21.4358 5.7127C15.3251 7.39016 10.3874 9.78606 6.34269 13.0352C3.09717 15.6426 1.64026 18.6646 1.88761 22.2744C1.93283 23.2684 1.9142 24.2642 1.83185 25.2558C1.80325 25.7336 1.77465 26.2106 1.76036 26.6869C1.65384 29.7395 1.5216 32.7919 1.38935 35.8608C1.1034 42.5422 0.801727 49.4509 0.782425 56.2892C0.743107 70.1177 0.938962 84.1605 1.12769 97.7413L1.23779 105.733C1.40793 118.566 1.63812 130.163 1.94051 141.186C2.02257 142.85 2.21698 144.506 2.52242 146.144C2.69256 147.186 2.86841 148.264 2.97493 149.318C3.05958 150.146 3.38025 150.933 3.89937 151.587C4.41848 152.241 5.11453 152.734 5.90591 153.009C12.407 155.879 19.4392 158.748 26.8073 160.303C39.2373 162.853 51.9041 164.091 64.5962 163.995C68.7188 163.995 73.0231 163.881 77.386 163.656C89.4511 162.945 101.451 161.396 113.299 159.021C120.852 157.569 129.721 155.498 138.234 151.154C140.649 149.922 141.775 148.183 141.777 145.679C141.772 145.089 141.741 144.504 141.712 143.936ZM124.472 25.7556C117.695 28.9919 110.12 31.0087 101.317 31.9266C93.239 32.7678 83.7226 33.5813 74.3592 33.2363L71.9394 33.1483C58.5162 32.6656 44.6355 32.1673 31.3832 28.8791C26.3684 27.6347 21.3493 25.9416 16.4967 24.3039L16.3223 24.245C14.6331 23.6771 12.9438 23.1091 11.2467 22.554L11.0501 22.4901C9.36302 21.9442 8.646 21.59 8.57309 20.8099C8.5066 20.1078 9.0835 19.6414 10.381 18.7768C10.5733 18.6483 10.762 18.5226 10.9415 18.3962C15.9184 14.8624 21.7039 13.1736 26.7072 11.9881C39.762 8.92952 53.1362 7.42061 66.5492 7.49313C69.0513 7.49313 71.6105 7.54066 74.1519 7.63507C91.183 8.25835 104.169 9.61139 116.258 12.02C120.253 12.8614 124.187 13.9664 128.034 15.3274C129.415 15.8611 130.741 16.5288 131.99 17.3208L132.108 17.3917C132.394 17.56 132.69 17.7311 132.989 17.9021C131.192 21.3777 128.551 23.8091 124.472 25.7556ZM7.63733 34.9649H7.99476C7.99047 32.7799 7.98689 30.5859 7.98403 28.3829L8.91981 28.7655C10.8342 29.5506 12.6636 30.2995 14.5022 31.0243C23.93 34.7377 34.4286 37.1933 47.5443 38.7529C62.1213 40.4857 76.6754 40.4438 88.9891 40.1727C99.6607 39.9384 112.179 39.0269 124.123 34.0471C126.832 32.9176 129.375 31.6285 132.065 30.2641L132.443 30.0738C132.892 29.8466 133.343 29.6174 133.797 29.3895C133.802 30.0845 133.797 30.7716 133.775 31.4645C133.681 34.2195 133.578 36.976 133.474 39.7701C133.274 45.1482 133.067 50.7094 132.929 56.1847C132.879 58.2271 132.402 59.1919 131.108 59.8691C130.293 60.295 129.518 60.7834 128.755 61.2626C127.601 62.0587 126.355 62.7119 125.042 63.2077C110.412 67.9398 96.9113 70.7502 83.7705 71.7973C65.033 73.2944 45.3776 71.1108 23.6833 65.1151C20.4249 64.215 17.1494 63.1672 13.9825 62.1542L13.8531 62.113C12.8809 61.8021 11.908 61.4926 10.9343 61.1845C8.74752 60.4945 7.90755 59.2941 7.93686 56.9003C8.02479 49.6297 8.00834 42.5209 7.99476 34.9954L7.63733 34.9627V34.9649ZM132.127 84.2578L132.119 85.3773C132.08 90.6357 132.044 95.8945 132.011 101.154V101.394C132.002 103.045 131.996 104.238 131.699 104.622C131.356 105.065 129.808 105.455 128.444 105.8C120.926 107.7 112.406 109.852 103.975 111.443C90.3177 113.954 76.4079 114.841 62.5395 114.084C51.702 113.568 37.4618 112.598 23.4267 109.652C19.8062 108.826 16.2301 107.819 12.7122 106.634C11.3468 106.2 9.94279 105.755 8.52162 105.326L7.90898 67.7325C51.7249 83.9888 92.3968 84.7874 132.203 70.1773C132.215 70.4293 132.223 70.6742 132.222 70.9148C132.194 75.363 132.163 79.8106 132.128 84.2578H132.127ZM35.3157 120.007C48.6836 121.901 62.1698 122.853 75.6731 122.856C89.6562 122.721 103.581 121.039 117.189 117.842C120.854 116.99 124.453 116.101 128.318 115.151L132.067 114.228L132.899 143.777C128.756 146.005 124.314 147.633 119.707 148.612C108.358 150.844 99.6321 152.4 91.4125 153.657C80.5797 155.299 69.6169 155.941 58.6649 155.573C45.2131 155.136 29.4595 153.988 14.5973 148.798C13.5153 148.435 12.4551 148.011 11.4219 147.527C10.7925 147.204 10.1806 146.849 9.58893 146.462C9.46812 146.385 9.34515 146.307 9.22076 146.23L8.62313 113.045C16.0728 116.386 24.3181 118.535 35.3172 120.007H35.3157Z" fill="black"/>
</svg>

<svg xmlns="http://www.w3.org/2000/svg" width="142" height="164" fill="none" viewBox="0 0 142 164"><path fill="#000" d="m141.712 143.936-.358-.039.358-.019a50 50 0 0 1-.053-1.161q-.154-5.67-.317-11.339c-.275-9.686-.558-19.7-.774-29.617-.093-4.235-.072-8.547-.045-12.716.011-1.933.022-3.865.022-5.797v-1.31l-.28-.004.225-8.615q.318-12.252.629-24.503l.091-3.624c.143-5.637.294-11.466.358-17.205.019-1.725-.059-3.46-.137-5.182-.067-1.501-.135-3.053-.132-4.563.009-4.443-2.842-6.63-4.988-7.889a44.9 44.9 0 0 0-12.876-4.85C108.191 1.969 92.591.888 79.34.297a221 221 0 0 0-28.666.376 160.5 160.5 0 0 0-29.238 5.04c-6.11 1.677-11.049 4.073-15.093 7.322-3.246 2.608-4.703 5.63-4.455 9.24.045.993.026 1.99-.056 2.98-.029.479-.057.956-.072 1.432-.106 3.052-.238 6.105-.37 9.174-.287 6.681-.588 13.59-.608 20.428-.039 13.829.157 27.871.346 41.452l.11 7.992c.17 12.833.4 24.43.703 35.453a37 37 0 0 0 .581 4.958c.17 1.042.346 2.12.453 3.174.085.828.405 1.615.924 2.269a4.4 4.4 0 0 0 2.007 1.422c6.501 2.87 13.533 5.739 20.901 7.294a181.2 181.2 0 0 0 37.79 3.692c4.122 0 8.426-.114 12.789-.339a261 261 0 0 0 35.913-4.635c7.553-1.452 16.422-3.523 24.935-7.867 2.415-1.232 3.541-2.971 3.543-5.475-.005-.59-.036-1.175-.065-1.743m-17.24-118.18c-6.777 3.236-14.352 5.253-23.155 6.17-8.078.842-17.594 1.655-26.958 1.31l-2.42-.088c-13.423-.482-27.303-.98-40.556-4.269-5.015-1.244-10.034-2.937-14.886-4.575l-.175-.059a642 642 0 0 0-5.075-1.691l-.197-.064c-1.687-.546-2.404-.9-2.477-1.68-.066-.702.51-1.169 1.808-2.033q.29-.192.56-.38c4.977-3.535 10.763-5.223 15.766-6.409A170.6 170.6 0 0 1 66.55 7.493c2.502 0 5.061.048 7.603.142 17.031.623 30.017 1.976 42.106 4.385a92 92 0 0 1 11.776 3.307 22.6 22.6 0 0 1 3.956 1.994l.118.07q.43.254.881.511c-1.797 3.476-4.438 5.907-8.517 7.854M7.637 34.965h.358l-.011-6.582.936.383c1.914.785 3.744 1.534 5.582 2.258 9.428 3.714 19.927 6.17 33.042 7.729 14.577 1.733 29.131 1.69 41.445 1.42 10.672-.235 23.19-1.146 35.134-6.126 2.709-1.13 5.252-2.418 7.942-3.783l.378-.19q.673-.342 1.354-.684c.005.694 0 1.382-.022 2.075-.094 2.754-.197 5.511-.301 8.305-.2 5.378-.407 10.94-.545 16.415-.05 2.042-.527 3.007-1.821 3.684-.815.426-1.59.914-2.353 1.394a17.3 17.3 0 0 1-3.713 1.945c-14.63 4.732-28.13 7.542-41.271 8.59-18.738 1.496-38.393-.687-60.088-6.683-3.258-.9-6.534-1.948-9.7-2.96l-.13-.042q-1.458-.465-2.919-.928c-2.186-.69-3.026-1.89-2.997-4.285.088-7.27.071-14.38.058-21.905l-.358-.032zm124.49 49.293-.008 1.12q-.058 7.886-.108 15.776v.24c-.009 1.651-.015 2.844-.312 3.228-.343.443-1.891.833-3.255 1.178-7.518 1.9-16.038 4.052-24.469 5.643a176 176 0 0 1-41.435 2.641c-10.838-.516-25.078-1.486-39.113-4.432a111 111 0 0 1-10.715-3.018 300 300 0 0 0-4.19-1.308l-.613-37.593c43.816 16.256 84.488 17.054 124.294 2.444q.02.377.019.738-.042 6.672-.094 13.343zm-96.811 35.749a288 288 0 0 0 40.357 2.849 189.5 189.5 0 0 0 41.516-5.014c3.665-.852 7.264-1.741 11.129-2.691l3.749-.923.832 29.549a49.6 49.6 0 0 1-13.192 4.835c-11.349 2.232-20.075 3.788-28.294 5.045a178.5 178.5 0 0 1-32.748 1.916c-13.452-.437-29.205-1.585-44.068-6.775a30 30 0 0 1-3.175-1.271 20 20 0 0 1-1.833-1.065q-.181-.116-.368-.232l-.598-33.185c7.45 3.341 15.695 5.49 26.694 6.962z"/></svg>
